X: 38078
T: Spittal Hill
R: jig
M: 6/8
K: Eminor
|:B,EF GAB|cBA GFE|FEF AGF|E2D2C2|
B,EF GAB|cef gfe|dBG EDF|AGF E3:|
BBB cBB|d2c2B2|BBB cBB|A2G2F2|
GGG AGG|B2A2G2|DEF GAB|A2G2F2|
BBB cBB|eBB cBB|AAA BAA|dAA BAA|
GGG AGG|cGG AGG|BGF DEF|E6||

